X:23
T:I'll ne'er leave thee
M:C|
L:1/8
K:AMix
d2      (f/g/a) Tf>egB|d2      (f/g/a) g2B2|d2      (f/g/a) Tf>e (f/g/a)|A2    (c/d/e) Tc2 A2:|
d/c/B/A/ GB      dBgB |d/c/B/A/ GB     g2B2|d/c/B/A/ GB      dBgB       |A/A/A Tce     Tc2 A2:|

% @@@@@@@@@@@@@@@@@@@@@@@@@@@@@@@@@@

%% 24. ===============================================================================

% @THE BRAES OF@
%  ^Balquhidder.^
%
% *FIRST Couple Right hands across with 2d Couple quite round and cast off to 2d Couple's
% place: first Couple Right hands across with 3d Couple quite round, and cast off below
% them.  *Lead up to the top, and cast off; down thro' the 3d Couple, and cast up.  *SETT
% across & turn.  *Lead out at the sides, & turn in the middle.

% @@@@@@@@@@@@@@@@@@@@@@@@@@@@@@@@@@

